icon-themes/sifr_svg/cmd/sc_decrementsublevels.svg

<svg viewBox="0 0 16 16" xmlns="http://www.w3.org/2000/svg"><path d="m1 0v2h14v-2zm7 6v2h7v-2zm-6-1v1c0 .224022.12983.528449.3125.71875l.3710938.28125 1.3164062 1-1.3164062 1-.3710938.28125c-.18267.190288-.3125.461858-.3125.71875v1h.4121094.5878906c.30945 0 .55232-.0903.75-.28125l2.25-1.8828125v-1.6152344c-.725151-.618354-1.233922-1.1698591-2.25-1.9394531-.19768-.19095-.44055-.28125-.75-.28125h-.5878906zm6 5v2h7v-2zm0 4v2h7v-2z" fill="#555753"/></svg>

<svg xmlns="http://www.w3.org/2000/svg" viewBox="0 0 16 16">
  <path
     style="fill:#555753"
     d="M 1,0 V 2 H 15 V 0 Z m 7,6 v 2 h 7 V 6 Z M 2,5 V 6 C 2,6.224022 2.12983,6.528449 2.3125,6.71875 L 2.6835938,7 4,8 2.6835938,9 2.3125,9.28125 C 2.12983,9.471538 2,9.743108 2,10 v 1 H 2.4121094 3 c 0.30945,0 0.55232,-0.0903 0.75,-0.28125 L 6,8.8359375 V 7.2207031 C 5.274849,6.6023491 4.766078,6.050844 3.75,5.28125 3.55232,5.0903 3.30945,5 3,5 H 2.4121094 Z m 6,5 v 2 h 7 v -2 z m 0,4 v 2 h 7 v -2 z"
     />
</svg>
